public/icons/tech/three.svg

<svg width="103" height="104" viewBox="0 0 103 104" fill="none" xmlns="http://www.w3.org/2000/svg">
<g id="threejs">
<g id="threejs_2">
<path id="Vector" fill-rule="evenodd" clip-rule="evenodd" d="M26.7016 102L2 2.00049L101.023 30.5097L26.7016 102Z" stroke="white" stroke-width="2.2865" stroke-miterlimit="10" stroke-linejoin="round"/>
<path id="Vector_2" fill-rule="evenodd" clip-rule="evenodd" d="M51.4929 16.2579L63.8349 66.2728L14.3511 52.0136L51.4929 16.2579Z" stroke="white" stroke-width="2.2865" stroke-miterlimit="10" stroke-linejoin="round"/>
<path id="Vector_3" fill-rule="evenodd" clip-rule="evenodd" d="M39.2146 58.7971L33.0845 33.9514L57.6689 41.0087L39.2146 58.7971Z" stroke="white" stroke-width="2.2865" stroke-miterlimit="10" stroke-linejoin="round"/>
<path id="Vector_4" fill-rule="evenodd" clip-rule="evenodd" d="M26.9519 9.13611L33.082 33.9818L8.49756 26.9245L26.9519 9.13611Z" stroke="white" stroke-width="2.2865" stroke-miterlimit="10" stroke-linejoin="round"/>
<path id="Vector_5" fill-rule="evenodd" clip-rule="evenodd" d="M76.1186 23.2992L82.2487 48.1449L57.6643 41.0876L76.1186 23.2992Z" stroke="white" stroke-width="2.2865" stroke-miterlimit="10" stroke-linejoin="round"/>
<path id="Vector_6" fill-rule="evenodd" clip-rule="evenodd" d="M39.2173 58.8142L45.3474 83.6599L20.7629 76.6026L39.2173 58.8142Z" stroke="white" stroke-width="2.2865" stroke-miterlimit="10" stroke-linejoin="round"/>
</g>
</g>
</svg>

<svg xmlns="http://www.w3.org/2000/svg" fill="none" viewBox="0 0 103 104"><path stroke="#000" stroke-linejoin="round" stroke-miterlimit="10" stroke-width="2.287" d="M26.702 102 2 2l99.023 28.51z" clip-rule="evenodd"/><path stroke="#000" stroke-linejoin="round" stroke-miterlimit="10" stroke-width="2.287" d="m51.493 16.257 12.342 50.015L14.35 52.013z" clip-rule="evenodd"/><path stroke="#000" stroke-linejoin="round" stroke-miterlimit="10" stroke-width="2.287" d="m39.215 58.797-6.13-24.846 24.584 7.057zM26.952 9.136l6.13 24.845-24.584-7.057zm49.167 14.163 6.13 24.846-24.585-7.058zM39.217 58.814l6.13 24.845-24.584-7.057z" clip-rule="evenodd"/></svg>
